X: 3
T: The Old Bush
R: reel
M: 4/4
L: 1/8
K: Dmix
|:Am - - - | D - - - |Am - - - | D - - - |Am - - - | D - - - | D - - - | D - Am - :| |:C - - - |C - - - |C - Am - |D - Am - |C - - - |A(m) - D - |D - - -|D - Am - :|C - - - |D - - - |D - - -|D - Am - :|


Tune 1499	Setting 14891

